X: 19600
T: Jan Mijne Man
R: reel
M: 4/4
K: Aminor
c2 (cB) A2 Ac|BAGB AG A2|c2 (cB) AB c/B/A|1 BAGB A4:|2 BAGB A2 (AB)||
c2 (cd) e3 d|cBcd edcB|c2 (cd) e3 d|cBcd edcB|
c2 (cB) A2 Ac|BAGB AG A2|c2 (cB) AB c/B/A|BAGB A4||

